X: 38091
T: Splendid Isolation
R: reel
M: 4/4
K: Gdorian
FGAF GdcA|G2AG FGAc|d2 cA GABc|dg2f g3a|
bgaf gfde|f2 gf fdcA|GcAG FGAc|dc2A G4:|
g2ag fdd2|gfdc Acdc|AG G2 Acdc|AG G2 F2 FE|
FGAF GdcA|G2 AG FGAc|dg g2 fgag|fdcA G4:|

